X:1
T:Mission War Song
T:Mission War Song
T:Welsh Air
T:George Scott Railton, 1874
T:Public Domain Courtesy of the Cyber Hymnal™
T:Public Domain Courtesy of the Cyber Hymnal™
C:Welsh Air
Z:Public Domain
Z:Courtesy of the Cyber Hymnal™
%%score ( 1 2 ) ( 3 4 )
L:1/8
Q:1/4=110
M:4/4
K:G
V:1 treble 
V:2 treble 
V:3 bass 
V:4 bass 
V:1
 [DG]3 [DF] [CE]3 [CF] | [DG]2 [FA]2 [GB]2 [DG]2 | [Fc]2 [DB]2 [EA]2 [EG]2 | %3
w: 1.~Christ- ian, rouse thee!|war is rag- ing,|God with sin is|
w: 2.~Lord, we come, and|from Thee ne- ver,|Self nor earth our|
w: 3.~Hark! I hear the|war- riors shout- ing,|Now the hosts of|
 [DF]2 [^CE]2 [DF]2 D2 | [DG]3 [DF] [CE]3 [DF] | [DG]2 [FA]2 [GB]2 [Ge]2 | [Gd]3 [GB] [FA]3 [FB] | %7
w: bat- tle wag- ing,|Ev- ery ran- somed|power en- gag- ing,|Break the tempt- er’s|
w: hearts shall se- ver,|Thine en- tire- ly,|Thine for- ev- er,|We will fight and|
w: hell we’re rout- ing,|Cour- age! on- ward!|ne- ver doubt- ing,|We shall win the|
 [DG]8 | [DG]3 [DF] [CE]3 [CF] | [DG]2 [FA]2 [GB]2 [DG]2 | [Fc]2 [DB]2 [EA]2 [EG]2 | %11
w: spell.|Dare ye still lie|fond- ly dream- ing,|Wrapt in ease and|
w: die.|To a world of|re- bels dy- ing,|Heav’n, and hell, and|
w: day.|See the foe be-|fore us fall- ing,|Sin- ners on the|
 [DF]2 [^CE]2 [DF]2 D2 | [DG]3 [DF] [CE]3 [DF] | [DG]2 [FA]2 [GB]2 [Ge]2 | [Gd]3 [GB] [FA]3 [FB] | %15
w: world- ly schem- ing,|While the mul- ti-|tudes are stream- ing,|Down- wards in- to|
w: God de- fy- ing,|Ev- ery- where we’ll|still be cry- ing,|“Will ye per- ish,|
w: Sav- ior call- ing,|Throw- ing off the|bond- age gall- ing,|Join our glad ar-|
 [DG]8 ||"^Refrain" [FA]3 [EG] [DF]3 [EG] | [FA]2 [FA]6 | [Bd]3 [Ac] [GB]3 [Ac] | [Bd]2 [Bd]6 | %20
w: hell.|||||
w: why?”|Thro’ the world re-|sound- ing,|Let the Gos- pel|sound- ing,|
w: ray.|||||
 [Bd]3 [Ac] [GB]3 [Ac] | [Bd]3 [Ac] [GB]3 [Ac] | ([Bd]>[ce]) ([Bd]>[Ac]) ([GB]>[FA]) ([GB]>[Ac]) | %23
w: |||
w: Sum- mon all at|Je- sus’ call, His|glor- * ious * cross * sur- *|
w: |||
 [Bd]2 [Bd]4 z2 | [ce]2 [ce]2 [Bd]2 [Bd]2 | [Ac]2 [Ac]2 [GB]2 [GB]2 | %26
w: |||
w: round- ing;|Sons of God, earth’s|tri- fles leav- ing,|
w: |||
 [FA]2 ([Ac]>[GB]) [FA]2 [EG]2 | [DF]2 [^CE]2 [DF]2 D2 | [DG]3 [DF] [CE]3 [DF] | %29
w: |||
w: Be not * faith- less,|but be- liev- ing,|To your con- qu’ring|
w: |||
 [DG]2 [FA]2 [GB]2 [Ge]2 | [Gd]3 [GB] [FA]3 [FB] | G8 |] %32
w: |||
w: cap- tain cleav- ing,|For- ward to the|fight.|
w: |||
V:2
 x8 | x8 | x8 | x6 D2 | x8 | x8 | x8 | x8 | x8 | x8 | x8 | x6 D2 | x8 | x8 | x8 | x8 || x8 | x8 | %18
 x8 | x8 | x8 | x8 | x8 | x8 | x8 | x8 | x8 | x6 D2 | x8 | x8 | x8 | G8 |] %32
V:3
 [G,,B,]3 [B,,B,] [C,G,]3 [C,A,] | [B,,G,]2 [D,D]2 [G,D]2 [G,,B,]2 | %2
 [A,,A,]2 [B,,G,]2 [C,A,]2 [^C,A,]2 | [D,A,]2 [A,,A,]2 [D,A,]2 [C,F,]2 | %4
 [B,,G,]3 [G,,G,] [C,G,]3 [C,G,] | [B,,B,]2 [D,A,]2 G,2 [C,C]2 | [D,B,]3 [D,D] [D,D]3 [D,D] | %7
 [G,,B,]8 | [G,,B,]3 [B,,B,] [C,G,]3 [C,A,] | [B,,G,]2 [D,D]2 [G,D]2 [G,,B,]2 | %10
 [A,,A,]2 [B,,G,]2 [C,A,]2 [^C,A,]2 | [D,A,]2 [A,,A,]2 [D,A,]2 [C,F,]2 | %12
 [B,,G,]3 [G,,G,] [C,G,]3 [C,G,] | [B,,B,]2 [D,A,]2 G,2 [C,C]2 | [D,B,]3 [D,D] [D,D]3 [D,D] | %15
 [G,,B,]8 || [D,A,]3 [D,A,] [D,A,]3 [D,A,] | [D,A,]2 [D,A,]6 | [G,,G,]3 [G,,G,] [G,,G,]3 [G,,G,] | %19
 [G,,G,]2 [G,,G,]6 | [G,,G,]2 [G,,G,]2 [G,,G,]2 [G,,G,]2 | [G,,G,]2 [G,,G,]2 [G,,G,]2 [G,,G,]2 | %22
 [G,,G,]2 [G,,G,]2 [G,,G,]2 [G,,G,]2 | [G,,G,]2 [G,,G,]4 z2 | G,2 G,2 G,2 [B,,G,]2 | %25
 [C,G,]2 [D,F,]2 G,2 [G,D]2 | [D,D]2 [D,D]2 [D,D]2 [^C,A,]2 | [D,A,]2 [A,,A,]2 [D,A,]2 [C,F,]2 | %28
 [B,,G,]3 [G,,G,] [C,G,]3 [C,G,] | [B,,B,]2 [D,A,]2 G,2 [C,C]2 | [D,B,]3 [D,D] [D,D]3 [D,D] | %31
 [G,,B,]8 |] %32
V:4
 x8 | x8 | x8 | x8 | x8 | x4 G,2 x2 | x8 | x8 | x8 | x8 | x8 | x8 | x8 | x4 G,2 x2 | x8 | x8 || %16
 x8 | x8 | x8 | x8 | x8 | x8 | x8 | x8 | (C,D,) (E,F,) G,2 x2 | x4 G,2 x2 | x8 | x8 | x8 | %29
 x4 G,2 x2 | x8 | x8 |] %32

